telier/img/master.svg

<svg width="31" height="24" viewBox="0 0 31 24" fill="none" xmlns="http://www.w3.org/2000/svg">
<path fill-rule="evenodd" clip-rule="evenodd" d="M9.2771 20.5142V21.7309V22.9476H8.74448V22.6522C8.57555 22.8713 8.31921 23.0088 7.97078 23.0088C7.28389 23.0088 6.7454 22.4745 6.7454 21.7309C6.7454 20.988 7.28389 20.4531 7.97078 20.4531C8.31921 20.4531 8.57555 20.5906 8.74448 20.8097V20.5142H9.2771ZM8.03708 20.9519C7.57602 20.9519 7.29387 21.3033 7.29387 21.731C7.29387 22.1587 7.57602 22.51 8.03708 22.51C8.4776 22.51 8.775 22.1738 8.775 21.731C8.775 21.2881 8.4776 20.9519 8.03708 20.9519ZM27.2759 21.731C27.2759 21.3033 27.558 20.9519 28.0191 20.9519C28.4602 20.9519 28.757 21.2881 28.757 21.731C28.757 22.1738 28.4602 22.51 28.0191 22.51C27.558 22.51 27.2759 22.1587 27.2759 21.731ZM29.2597 19.5371V21.7309V22.9476H28.7265V22.6522C28.5575 22.8713 28.3012 23.0088 27.9528 23.0088C27.2659 23.0088 26.7274 22.4745 26.7274 21.7309C26.7274 20.988 27.2659 20.4531 27.9528 20.4531C28.3012 20.4531 28.5575 20.5906 28.7265 20.8097V19.5371H29.2597ZM15.8885 20.9268C16.2317 20.9268 16.4523 21.1406 16.5086 21.517H15.2374C15.2943 21.1657 15.509 20.9268 15.8885 20.9268ZM14.6789 21.7309C14.6789 20.9722 15.1811 20.4531 15.899 20.4531C16.5854 20.4531 17.057 20.9722 17.0622 21.7309C17.0622 21.802 17.057 21.8684 17.0517 21.9343H15.2327C15.3095 22.3725 15.6222 22.5304 15.9653 22.5304C16.2111 22.5304 16.4727 22.4383 16.678 22.2758L16.9391 22.6679C16.6417 22.9173 16.3038 23.0088 15.9348 23.0088C15.2016 23.0088 14.6789 22.5048 14.6789 21.7309ZM22.3304 21.731C22.3304 21.3033 22.6126 20.9519 23.0736 20.9519C23.5141 20.9519 23.8115 21.2881 23.8115 21.731C23.8115 22.1738 23.5141 22.51 23.0736 22.51C22.6126 22.51 22.3304 22.1587 22.3304 21.731ZM24.3137 20.5142V21.7309V22.9476H23.7811V22.6522C23.6115 22.8713 23.3558 23.0088 23.0074 23.0088C22.3205 23.0088 21.782 22.4745 21.782 21.7309C21.782 20.988 22.3205 20.4531 23.0074 20.4531C23.3558 20.4531 23.6115 20.5906 23.7811 20.8097V20.5142H24.3137ZM19.3224 21.7309C19.3224 22.4692 19.8397 23.0088 20.6293 23.0088C20.9983 23.0088 21.244 22.9272 21.5103 22.7186L21.2546 22.2909C21.0546 22.4337 20.8446 22.51 20.6135 22.51C20.1882 22.5048 19.8755 22.1994 19.8755 21.7309C19.8755 21.2624 20.1882 20.9571 20.6135 20.9519C20.8446 20.9519 21.0546 21.0282 21.2546 21.1709L21.5103 20.7432C21.244 20.5346 20.9983 20.4531 20.6293 20.4531C19.8397 20.4531 19.3224 20.9926 19.3224 21.7309ZM25.5437 20.8098C25.6821 20.5959 25.8821 20.4532 26.1895 20.4532C26.2974 20.4532 26.4511 20.4736 26.569 20.5196L26.4048 21.0184C26.2922 20.9724 26.1795 20.9572 26.0716 20.9572C25.7232 20.9572 25.549 21.181 25.549 21.5836V22.9477H25.0157V20.5144H25.5437V20.8098ZM11.9114 20.7077C11.6551 20.5399 11.3019 20.4531 10.9124 20.4531C10.2918 20.4531 9.89237 20.7485 9.89237 21.2321C9.89237 21.629 10.1898 21.8737 10.7376 21.95L10.9893 21.9856C11.2814 22.0264 11.4192 22.1027 11.4192 22.2402C11.4192 22.4284 11.2245 22.5356 10.8608 22.5356C10.4919 22.5356 10.2255 22.4185 10.0461 22.281L9.795 22.693C10.0871 22.9068 10.4561 23.0088 10.8555 23.0088C11.563 23.0088 11.973 22.6778 11.973 22.2146C11.973 21.7869 11.6504 21.5631 11.1172 21.4868L10.8661 21.4506C10.6356 21.4203 10.4508 21.3749 10.4508 21.2117C10.4508 21.0334 10.625 20.9268 10.9171 20.9268C11.2298 20.9268 11.5325 21.0439 11.6809 21.1354L11.9114 20.7077ZM18.1387 20.8098C18.2765 20.5959 18.4766 20.4532 18.7839 20.4532C18.8919 20.4532 19.0456 20.4736 19.1635 20.5196L18.9992 21.0184C18.8866 20.9724 18.774 20.9572 18.666 20.9572C18.3176 20.9572 18.1434 21.181 18.1434 21.5836V22.9477H17.6108V20.5144H18.1387V20.8098ZM14.2383 20.5142H13.3672V19.776H12.8288V20.5142H12.3319V20.9979H12.8288V22.1079C12.8288 22.6726 13.0493 23.0088 13.6793 23.0088C13.9104 23.0088 14.1767 22.9377 14.3457 22.8206L14.192 22.3672C14.033 22.4587 13.8588 22.5048 13.7204 22.5048C13.4541 22.5048 13.3672 22.3416 13.3672 22.0974V20.9979H14.2383V20.5142ZM6.27436 21.4205V22.9477H5.73587V21.5935C5.73587 21.181 5.56166 20.952 5.19797 20.952C4.84426 20.952 4.59848 21.1763 4.59848 21.5988V22.9477H4.06V21.5935C4.06 21.181 3.88109 20.952 3.52738 20.952C3.16311 20.952 2.9273 21.1763 2.9273 21.5988V22.9477H2.3894L2.3894 20.5144H2.92261L2.92261 20.8144C3.12264 20.5295 3.37839 20.4532 3.64 20.4532C4.01424 20.4532 4.28055 20.6163 4.44949 20.8861C4.67533 20.5447 4.99795 20.4479 5.3106 20.4532C5.90539 20.4584 6.27436 20.8453 6.27436 21.4205Z" fill="#231F20"/>
<path d="M19.8074 16.3794H11.7349V1.96802H19.8074V16.3794Z" fill="#FF5F00"/>
<path d="M12.247 9.17406C12.247 6.25065 13.6249 3.64656 15.7706 1.96839C14.2015 0.74122 12.2212 0.00876617 10.069 0.00876617C4.9739 0.00876617 0.84375 4.11214 0.84375 9.17406C0.84375 14.236 4.9739 18.3394 10.069 18.3394C12.2212 18.3394 14.2015 17.6069 15.7706 16.3797C13.6249 14.7016 12.247 12.0975 12.247 9.17406Z" fill="#EB001B"/>
<path d="M30.6979 9.17406C30.6979 14.236 26.5678 18.3394 21.4727 18.3394C19.3205 18.3394 17.3402 17.6069 15.7705 16.3797C17.9168 14.7016 19.2947 12.0975 19.2947 9.17406C19.2947 6.25065 17.9168 3.64656 15.7705 1.96839C17.3402 0.74122 19.3205 0.00876617 21.4727 0.00876617C26.5678 0.00876617 30.6979 4.11214 30.6979 9.17406Z" fill="#F79E1B"/>
</svg>

<svg width="31" height="24" fill="none" xmlns="http://www.w3.org/2000/svg"><path fill-rule="evenodd" clip-rule="evenodd" d="M9.277 20.514v2.434h-.533v-.296c-.168.22-.425.357-.773.357-.687 0-1.226-.535-1.226-1.278s.539-1.278 1.226-1.278c.348 0 .605.138.773.357v-.296h.533zm-1.24.438c-.461 0-.743.351-.743.779 0 .428.282.779.743.779.44 0 .738-.336.738-.779s-.297-.78-.738-.78zm19.239.779c0-.428.282-.78.743-.78.441 0 .738.337.738.78s-.297.779-.738.779c-.461 0-.743-.351-.743-.779zm1.984-2.194v3.411h-.534v-.296c-.168.22-.425.357-.773.357-.687 0-1.226-.535-1.226-1.278s.539-1.278 1.226-1.278c.348 0 .605.138.774.357v-1.273h.533zm-13.372 1.39c.344 0 .564.214.62.59h-1.27c.056-.351.271-.59.65-.59zm-1.21.804c0-.759.503-1.278 1.221-1.278.686 0 1.158.52 1.163 1.278 0 .071-.005.137-.01.203h-1.82c.078.438.39.596.733.596.246 0 .508-.092.713-.254l.261.392c-.297.25-.635.34-1.004.34-.733 0-1.256-.503-1.256-1.277zm7.652 0c0-.428.283-.78.744-.78.44 0 .737.337.737.78s-.297.779-.737.779c-.461 0-.744-.351-.744-.779zm1.984-1.217v2.434h-.533v-.296c-.17.22-.425.357-.774.357-.687 0-1.225-.535-1.225-1.278s.538-1.278 1.225-1.278c.349 0 .604.138.774.357v-.296h.533zm-4.992 1.217c0 .738.518 1.278 1.307 1.278.37 0 .615-.082.881-.29l-.255-.428c-.2.143-.41.219-.642.219-.425-.005-.738-.31-.738-.78 0-.468.313-.773.738-.778.232 0 .442.076.642.219l.255-.428c-.266-.208-.512-.29-.88-.29-.79 0-1.308.54-1.308 1.278zm6.222-.921a.724.724 0 01.645-.357c.108 0 .262.02.38.067l-.164.498a.87.87 0 00-.333-.06c-.349 0-.523.223-.523.626v1.364h-.533v-2.434h.528v.296zm-13.633-.102c-.256-.168-.61-.255-.999-.255-.62 0-1.02.296-1.02.78 0 .396.298.64.846.717l.251.036c.292.04.43.117.43.254 0 .188-.194.296-.558.296a1.31 1.31 0 01-.815-.255l-.251.412c.292.214.661.316 1.06.316.708 0 1.118-.331 1.118-.794 0-.428-.323-.652-.856-.728l-.25-.036c-.231-.03-.416-.076-.416-.24 0-.178.174-.284.466-.284.313 0 .616.117.764.208l.23-.427zm6.228.102a.722.722 0 01.645-.357c.108 0 .262.02.38.067l-.165.498a.869.869 0 00-.333-.06c-.348 0-.523.223-.523.626v1.364h-.532v-2.434h.528v.296zm-3.9-.296h-.872v-.738h-.538v.738h-.497v.484h.497v1.11c0 .565.22.9.85.9.231 0 .498-.07.667-.187l-.154-.454a.991.991 0 01-.472.138c-.266 0-.353-.163-.353-.408v-1.1h.871v-.483zm-7.965.907v1.527h-.538v-1.355c0-.412-.174-.641-.538-.641-.354 0-.6.224-.6.647v1.349H4.06v-1.355c0-.412-.179-.641-.533-.641-.364 0-.6.224-.6.647v1.349H2.39v-2.434h.534v.3c.2-.285.455-.36.717-.36.374 0 .64.162.81.432.225-.341.548-.438.86-.433.595.005.964.392.964.968z" fill="#231F20"/><path d="M19.807 16.38h-8.072V1.967h8.072v14.411z" fill="#FF5F00"/><path d="M12.247 9.174a9.128 9.128 0 013.524-7.206 9.225 9.225 0 00-5.702-1.96C4.974.009.844 4.113.844 9.175s4.13 9.165 9.225 9.165a9.224 9.224 0 005.702-1.96 9.128 9.128 0 01-3.524-7.205z" fill="#EB001B"/><path d="M30.698 9.174c0 5.062-4.13 9.165-9.225 9.165a9.227 9.227 0 01-5.702-1.96 9.127 9.127 0 000-14.41 9.228 9.228 0 015.702-1.96c5.095 0 9.225 4.103 9.225 9.165z" fill="#F79E1B"/></svg>
